X: 41626
T: Up Sligo
R: jig
M: 6/8
K: Gmajor
|:dcB cBA|GEF G2B|dcB cBA|GBd efg|
dcB cBA|GEF G2g|bag age|dBd efg:|
gfg bge|dBd ~d3|gfg bge|dBd efg|
gfg bge|dBd d2g|bag age|dBd efg:|

